.local/share/icons/Gruvbox-Plus-Dark/actions/16/edit-paste.svg

<svg xmlns="http://www.w3.org/2000/svg" width="16" height="16" viewBox="0 0 16 16">
 <defs>
  <style id="current-color-scheme" type="text/css">
   .ColorScheme-Text { color:#ebdbb2; } .ColorScheme-Highlight { color:#458588; }
  </style>
 </defs>
 <path style="fill:currentColor" class="ColorScheme-Text" d="M 8 0.00390625 C 6.8954 0.00390625 6 0.89933625 6 2.0039062 L 3 2.0039062 C 2 2.0039062 2 3.0039062 2 3.0039062 L 2 14.003906 C 2 15.003906 3 15.003906 3 15.003906 L 13 15.003906 C 13 15.003906 14 15.003906 14 14.003906 L 14 3.0039062 C 14 2.0039062 13 2.0039062 13 2.0039062 L 10 2.0039062 C 10 1.8658363 9.99495 1.7278563 9.96875 1.5976562 C 9.78226 0.68628625 8.9666 0.00390625 8 0.00390625 z M 8 1.0039062 C 8.41421 1.0039062 8.75444 1.2699863 8.90625 1.6289062 C 8.95685 1.7485462 9 1.8658363 9 2.0039062 C 9 2.5561863 8.55229 3.0039062 8 3.0039062 C 7.44771 3.0039062 7 2.5561863 7 2.0039062 C 7 1.4516262 7.44771 1.0039062 8 1.0039062 z M 4 4.0039062 L 5 4.0039062 L 5 5.0039062 L 11 5.0039062 L 11 4.0039062 L 12 4.0039062 L 12 13.003906 L 4 13.003906 L 4 4.0039062 z"/>
</svg>

<svg width="16" height="16" version="1.1" xmlns="http://www.w3.org/2000/svg">
  <defs>
    <style id="current-color-scheme" type="text/css">.ColorScheme-Text { color:#ebdbb2; } .ColorScheme-Highlight { color:#458588; }</style>
  </defs>
  <path class="ColorScheme-Text" d="m6.5 1c-0.554 0-1 0.446-1 1h-2.5c-0.554 0-1 0.446-1 1v11c0 0.554 0.446 1 1 1h10c0.554 0 1-0.446 1-1v-11c0-0.554-0.446-1-1-1h-2.5c0-0.554-0.446-1-1-1zm-2.5 3h8v9h-8z" fill="currentColor"/>
</svg>
